symbolic/24x24/actions/view-time-schedule-baselined-add.svg

<svg xmlns="http://www.w3.org/2000/svg" width="24" height="24"><defs><style id="current-color-scheme" type="text/css"></style></defs><path style="fill:currentColor;color:#323a41" d="M3 1C1 1 1 3 1 3v12h8v-2H3V6h4V4H3V3h10v4H7v2h8V3s0-2-2-2zm2 9v2h4v-2zm7 0v2h-2v2h2v2h2v-2h2v-2h-2v-2z" transform="translate(4 4)"/></svg>

<svg xmlns="http://www.w3.org/2000/svg" width="24" height="24" version="1.1">
 <defs>
  <style id="current-color-scheme" type="text/css">
   .ColorScheme-Text { color:#323a41; } .ColorScheme-Highlight { color:#4285f4; } .ColorScheme-NeutralText { color:#ff9800; } .ColorScheme-PositiveText { color:#4caf50; } .ColorScheme-NegativeText { color:#f44336; }
  </style>
 </defs>
 <g transform="translate(4,4)">
  <path style="fill:currentColor" class="ColorScheme-Text" d="M 3,1 C 1,1 1,3 1,3 V 15 H 9 V 13 H 3 V 6 H 7 V 4 H 3 V 3 H 13 V 7 H 7 V 9 H 15 V 3 C 15,3 15,1 13,1 Z M 5,10 V 12 H 9 V 10 Z M 12,10 V 12 H 10 V 14 H 12 V 16 H 14 V 14 H 16 V 12 H 14 V 10 Z"/>
 </g>
</svg>
